X: 2207
T: SIR ROBERT PEEL
Q: "Reel."
R: Reel.
%R: reel
B: James Kerr "Merry Melodies" v.2 p.23 #207
Z: 2016 John Chambers <jc:trillian.mit.edu>
M: C
L: 1/8
K: Bb
uF |\
B2FE DB,FD | CccB AFcA |\
B2(FE) DB,FD | CcAF B3 ::\
e |\
dBfB dBfB | GccB AFFe |\
dBfB dBfB | GcAF B3 :|
